X:8
T:Hornet, The
C:Kevin Adams
M:4/4
R:hornpipe
K:D
DFAd cdBc|Adcd BdA2|DFAd cdBd|edcB A2A2|\
DFAd cdBc|Adcd BdA2|edcB AABc|1 d2d2 d4:|2 d2d2 d3|]
e|fdcd Bfed|cBcd B2B2|ecBc A2A2|ecBc A2de|\
  fdcd Bfed|cBcd B2B2|efde cdBc|1 A2A2 A2d:|2 ABGA FGEF|]

